!!!COM: Bach, Johann Sebastian
!!!CDT: 1685/3/-1750/7/28
!!!OPR@@DE: Das wohltemperierte Klavier
!!!OPR@EN: The Well-Tempered Clavier
!!!OTL: The Well-Tempered Clavier, Book 1, Fugue 2 in C minor
!!!SCT: BWV 847b
!!!parts: 3
**kern	**kern	**kern
*staff2	*staff1	*staff1
*clefF4	*clefG2	*clefG2
*k[b-e-a-]	*k[b-e-a-]	*k[b-e-a-]
*M4/4	*M4/4	*M4/4
*c:	*c:	*c:
*MM72	*MM72	*MM72
=1	=1	=1
1r	8r	1r
.	16ccL	.
.	16bnJ	.
.	8ccL	.
.	8gJ	.
.	8a-L	.
.	16cc	.
.	16bJ	.
.	8ccL	.
.	8ddJ	.
=2	=2	=2
1r	8gL	1r
.	16cc	.
.	16bnJ	.
.	8ccL	.
.	8ddJ	.
.	16fL	.
.	16gJ	.
.	4a-	.
.	16gL	.
.	16fJ	.
=3	=3	=3
1r	16e-L	8r
.	16cc	.
.	16bn	16ggL
.	16anJ	16ff#J
.	16gL	8ggL
.	16fn	.
.	16e-	8ccJ
.	16dJ	.
.	8cL	8ee-L
.	8ee-J	16gg
.	.	16ff#J
.	8ddL	8ggL
.	8ccJ	8aanJ
=4	=4	=4
1r	8b-L	8ddL
.	8anJ	16gg
.	.	16ff#J
.	8b-L	8ggL
.	8ccJ	8aanJ
.	8f#L	16ccL
.	.	16ddJ
.	8gJ	4ee-
.	8aL	.
.	8f#J	16ddL
.	.	16ccJ
=5	=5	=5
1r	4g	8b-L
.	.	16ee-
.	.	16ddJ
.	16r	8ee-L
.	16cL	.
.	16d	8gJ
.	16e-J	.
.	16fL	8a-L
.	16g	.
.	[8a-J	16ff
.	.	16ee-J
.	16a-]L	8ffL
.	16d	.
.	16e-	8anJ
.	16fJ	.
=6	=6	=6
1r	16gL	8b-L
.	16an	.
.	[8b-J	16gg
.	.	16ffJ
.	16b-]L	8ggL
.	16e-	.
.	16f	8bnJ
.	16gJ	.
.	16a-L	8ccL
.	16g	.
.	16f	16dd
.	16e-J	16ee-J
.	8dL	[4ff
.	16cc	.
.	16bnJ	.
=7	=7	=7
8r	4cc	8ff]L
16cL	.	16ee-
16BnJ	.	16ddJ
8cL	4r	16ccL
.	.	16b-
8GJ	.	16a-
.	.	16gJ
8A-L	8r	8fL
16c	8ff	8aa-J
16BJ	.	.
8cL	8ee-L	8ggL
8dJ	8ddJ	8ffJ
=8	=8	=8
8GL	8r	8ee-L
16c	8a-	8ddJ
16BnJ	.	.
8cL	8gL	8ee-L
8dJ	8fJ	8ffJ
16FL	8gL	8bnL
16GJ	.	.
4A-	16f	8ccJ
.	16e-J	.
.	8fL	8ddL
16GL	8dJ	8bJ
16FJ	.	.
=9	=9	=9
16E-L	4g	8ccL
16c	.	.
16Bn	.	16gg
16AnJ	.	16ff#J
16GL	8r	8ggL
16F	.	.
16E-	8bn	8ddJ
16DJ	.	.
16CL	8ccL	4ee-
16D	.	.
16E-	16cc	.
16DJ	16bJ	.
16CL	8ccL	8r
16BB-	.	.
16AA-	8gJ	8een
16GGJ	.	.
=10	=10	=10
16FFL	4a-	8ffL
16B-	.	.
16A-	.	16ff
16GJ	.	16eenJ
16FL	8r	8ffL
16E-	.	.
16D	8an	8ccJ
16CJ	.	.
16BB-L	8b-L	4dd
16C	.	.
16D	16b-	.
16CJ	16aJ	.
16BB-L	8b-L	8r
16AA-	.	.
16GG	8fJ	8dd
16FFJ	.	.
=11	=11	=11
16EE-L	4g	8ee-L
16A-	.	.
16G	.	16ee-
16FJ	.	16ddJ
16E-L	8r	8ee-L
16D-	.	.
16C	8g	8b-J
16BB-J	.	.
8AA-L	8a-L	8ccL
8cJ	8a-J	16ee-
.	.	16ddJ
8B-L	8gL	8ee-L
8A-J	8fJ	8ffJ
=12	=12	=12
8GL	8r	8b-L
8FJ	8A-	16ee-
.	.	16ddJ
8GL	8B-L	8ee-L
8A-J	8cJ	8ffJ
8DL	8r	16a-L
.	.	16b-J
8E-J	16A-L	4cc
.	16GJ	.
8FL	8A-L	.
8DJ	8FJ	16b-L
.	.	16a-J
=13	=13	=13
8E-L	8B-L	16gL
.	.	16e-
8A-J	8cJ	16f
.	.	16gJ
8GL	8B-L	16a-L
.	.	16b-
8FJ	8A-J	16cc
.	.	16ddJ
8GL	8B-L	16ee-L
.	.	16dd
8E-J	8GJ	16cc
.	.	16ddJ
8DL	8FL	16ee-L
.	.	16ff
8CJ	8E-J	16gg
.	.	16aanJ
=14	=14	=14
8DL	8FL	16bb-L
.	.	16f
8B-J	8d-J	16g
.	.	16a-J
8A-L	8cL	16b-L
.	.	16cc
8GJ	8B-J	16dd
.	.	16eenJ
8A-L	8cL	16ffL
.	.	16ee-
8FJ	8A-J	16dd
.	.	16ee-J
8E-L	8GL	16ffL
.	.	16gg
8DnJ	8FJ	16aan
.	.	16bbnJ
=15	=15	=15
8E-	8GL	8cccL
8r	16g	16bbn
.	16f#J	16aanJ
4r	8gL	16ggL
.	.	16ffn
.	8cJ	16ee-
.	.	16ddJ
8r	8e-L	8ccL
8C	16g	8ee-J
.	16f#J	.
8BB-L	8gL	8ddL
8AAnJ	8anJ	8ccJ
=16	=16	=16
8r	8dL	8b-L
8E-	16g	8anJ
.	16f#J	.
8DL	8gL	8b-L
8CJ	8anJ	8ccJ
8DL	16cL	8f#L
.	16dJ	.
16C	4e-	8gJ
16BB-J	.	.
8CL	.	8aL
8DJ	16dL	8f#J
.	16cJ	.
=17	=17	=17
8GGL	8B-	8gL
16B-	8r	16dd
16AnJ	.	16ccJ
8B-L	16r	8dd
.	16dL	.
8DJ	16en	8r
.	16f#J	.
8E-L	16gL	8r
.	16an	.
16c	[8b-J	16eenL
16B-J	.	16ddJ
8cL	16b-]L	8ee
.	16e	.
8EnJ	16fn	8r
.	16gJ	.
=18	=18	=18
8FL	16anL	8r
.	16b-	.
16d	[8ccJ	16ff#L
16cJ	.	16eenJ
8dL	16cc]L	8ff#
.	16f#	.
8F#J	16g	8r
.	16aJ	.
4G	8b-L	8r
.	16e-	16gL
.	16dJ	16fnJ
16r	8e-L	8g
16GGL	.	.
16AAn	8GJ	8r
16BBnJ	.	.
=19	=19	=19
16CL	8A-L	8r
16D	.	.
[8E-J	16f	16anL
.	16e-J	16gJ
16E-]L	8fL	8a
16AAn	.	.
16BB-	8AnJ	8r
16CJ	.	.
16DL	8B-L	8r
16E-	.	.
[8FJ	16g	16bnL
.	16fJ	16aJ
16F]L	8gL	8b
16BBn	.	.
16C	8BnJ	8r
16DJ	.	.
=20	=20	=20
8E-	16cL	8r
.	16f	.
8r	16e-	16ccL
.	16dJ	16bnJ
8r	16cL	8ccL
.	16B-	.
8En	16A-	8gJ
.	16GJ	.
8FL	8FL	8a-L
8FFJ	8a-J	16cc
.	.	16bJ
8EE-L	8gL	8ccL
8DDJ	8fJ	8ddJ
=21	=21	=21
8r	8e-L	8gL
8AA-	8dJ	16cc
.	.	16bnJ
8GGL	8e-L	8ccL
8FFJ	8fJ	8ddJ
8GGL	8BnL	16fL
.	.	16gJ
16FF	8cJ	4a-
16EE-J	.	.
8FFL	8dL	.
8GGJ	8BJ	16gL
.	.	16fJ
=22	=22	=22
16CL	4c	8e-L
16D	.	.
16E-	.	16cc
16DJ	.	16bnJ
16CL	8r	8ccL
16BB-	.	.
16AA-	8en	8gJ
16GGJ	.	.
16FFL	8fL	4a-
16B-	.	.
16A-	16f	.
16GJ	16eJ	.
16FL	8fL	8r
16E-	.	.
16D	8cJ	8an
16CJ	.	.
=23	=23	=23
16BB-L	4d	8b-L
16C	.	.
16D	.	16b-
16CJ	.	16anJ
16BB-L	8r	8b-L
16AA-	.	.
16GG	8d	8fJ
16FFJ	.	.
16EE-L	8e-L	4g
16A-	.	.
16G	16e-	.
16FJ	16dJ	.
16E-L	8e-L	8r
16D	.	.
16C	8B-J	[8g
16BB-J	.	.
=24	=24	=24
16AA-L	[2c	8g]L
16BB-	.	.
16C	.	16a-
16BB-J	.	16b-J
16AA-L	.	16ccL
16GG	.	16bn
16FF	.	16cc
16EE-J	.	16a-J
16DDL	8c]L	[2f
16G	.	.
16F	16d	.
16E-J	16e-J	.
16DL	16fL	.
16C	16e-	.
16BBn	16f	.
16AAnJ	16dJ	.
=25	=25	=25
4GG	8Bn	8f]L
.	8r	16dd
.	.	16ccJ
4r	8r	8ddL
.	8B	8fJ
16r	8c	8e-L
16GGL	.	.
16AAn	8r	16ee-
16BBnJ	.	16ddJ
16CL	8r	8ee-L
16D	.	.
16E-	8e-	8gJ
16FJ	.	.
=26	=26	=26
16GL	8d	8fL
16F	.	.
16A-	8r	16ff
16GJ	.	16ee-J
16FL	8r	8ffL
16E-	.	.
16D	[8f	8a-J
16CJ	.	.
8BBnL	8f]	16gL
.	.	16ff
16C	8r	16ee-
16BBJ	.	16ddJ
8CL	8r	16ccL
.	.	16bn
8GGJ	8f	16an
.	.	16gJ
=27	=27	=27
8AA-L	8e-L	8ccL
16C	8a-J	8ffJ
16BBnJ	.	.
8CL	8gL	8ee-L
8DJ	8fJ	8ddJ
8GGL	8e-L	8r
16C	8dJ	8a-
16BBJ	.	.
8CL	8e-L	8gL
8DJ	8fJ	8fJ
=28	=28	=28
16FFL	8BnL	8gL
16GGJ	.	.
4AA-	8cJ	16f
.	.	16e-J
.	8dL	8fL
16GGL	8BJ	8dJ
16FFJ	.	.
4EE-	8BL	8a-L
.	8cJ	8gJ
8r	8r	8r
8E-	8c	8an
=29	=29	=29
8DL	16fL	8bnL
.	16d	.
8CJ	16e-	8ccJ
.	[16cJ	.
8GL	8c]L	16fL
.	.	16e-
8GGJ	8BnJ	16d
.	.	16cJ
[2CC [2C	4c	8cL
.	.	16cc
.	.	16bnxJ
.	8r	8ccL
.	8en	8gJ
=30	=30	=30
1CC_ 1C_	4f	8a-L
.	.	16cc
.	.	16bnJ
.	8r	8ccL
.	8a- 8f	8dd 8bnJ
.	8fL	8gL
.	16e-	16cc
.	16dJ	16bJ
.	8e-L	8ccL
.	8a- 8fJ	8ddJ
=31	=31	=31
1CC] 1C]	8d 8Bn	16fL
.	.	16gJ
.	8r	4a-
.	8d 8B	.
.	8r	16gL
.	.	16fJ
.	2c 2G	2en
==	==	==
*-	*-	*-
!!!OTA: Das wohltemperirte Clavier
!!!OCY: Deutschland
!!!PPP: Coethen; Cothen
!!!ODT: <1722//
!!!PDT: 1722
!!!AFR: fuga; fugue
!!!AST: polyphony
!!!AMT: simple quadruple
!!!SCA: Bach-Werke-Verzeichnis
!!!YOR: Bach-Gesellschaft Ausgabe, Band 14
!!!YOO: Breitkopf und Härtel
!!!YOY: 1866
!!!YOE: Franz Kroll (1820-1877)
!!!AIN: cemba; clavi
!!!YEC: Copyright 1994, David Huron
!!!YEM: Rights to all derivative electronic formats reserved.
!!!ENC: David Huron
!!!END: 1986/11/14
!!!EED: David Huron
!!!YER: 1994/08/10
!!!EED2: Craig Stuart Sapp (notational niceties)
!!!EEV: 2020/09/19
!!!EFL: 2/48
